X: 16
T:Loch Giel
R:Jig
Z:Added by Alf Warnock
M:6/8
L:1/8
K:G
|:DGG BGG|dGG BGG|DFA DFA|DFA cBA|
DGG BGG|dGG BAG|DFA cBA|AGF G2z:|
|:Bdg bgg|aff gfe|Ace aba|gag fdc|
Bdg bgg|aff gfe|ABc ecA|AGF G2z:|

